src/static/logos/ethnio.svg

<?xml version="1.0" encoding="UTF-8" standalone="no"?>
<svg width="256px" height="256px" viewBox="0 0 256 256" version="1.1" xmlns="http://www.w3.org/2000/svg" xmlns:xlink="http://www.w3.org/1999/xlink" preserveAspectRatio="xMidYMid">
    <defs>
        <linearGradient x1="0%" y1="50.000318%" x2="100%" y2="50.000318%" id="linearGradient-1">
            <stop stop-color="#FFFFFF" stop-opacity="0" offset="0%"></stop>
            <stop stop-color="#FFFFFF" offset="100%"></stop>
        </linearGradient>
    </defs>
	<g>
		<path d="M127.926222,0 C198.578363,0 255.849924,57.2640012 255.849924,127.899765 C255.849924,198.539309 198.578363,255.799531 127.926222,255.799531 C57.2753396,255.80079 0,198.540569 0,127.899765 C0,57.2640012 57.2753396,0 127.926222,0 L127.926222,0 Z" fill="#24373E"></path>
		<path d="M127.923702,46.9636872 C172.632306,46.9636872 208.873638,83.2037598 208.873638,127.899765 C208.873638,172.60207 172.632306,208.837103 127.923702,208.837103 C83.2188777,208.837103 46.9762854,172.60207 46.9762854,127.899765 C46.9762854,83.2037598 83.2188777,46.9636872 127.923702,46.9636872 L127.923702,46.9636872 Z" fill="#E5D4C4"></path>
		<path d="M127.926222,79.7430256 C154.528647,79.7430256 176.098079,101.303639 176.098079,127.902285 C176.098079,154.499671 154.528647,176.062804 127.926222,176.062804 C101.325056,176.062804 79.7581435,154.500931 79.7581435,127.902285 C79.7581435,101.303639 101.325056,79.7430256 127.926222,79.7430256 L127.926222,79.7430256 Z" fill="#8FB1BE"></path>
		<path d="M132.050883,0 C247.3247,9.03797124 255.849924,118.868093 255.849924,118.868093 C255.849924,118.868093 175.766746,74.6558597 125.58547,75.5478145 C75.6019869,72.567073 1.25982314,109.341311 1.25982314,109.341311 C1.25982314,109.341311 16.1471532,1.47903237 132.050883,0" opacity="0.25" fill="url(#linearGradient-1)"></path>
	</g>
</svg>

<svg width="256" height="256" xmlns="http://www.w3.org/2000/svg" preserveAspectRatio="xMidYMid"><defs><linearGradient x1="0%" y1="50%" x2="100%" y2="50%" id="a"><stop stop-color="#FFF" stop-opacity="0" offset="0%"/><stop stop-color="#FFF" offset="100%"/></linearGradient></defs><path d="M127.926 0C198.578 0 255.85 57.264 255.85 127.9c0 70.64-57.272 127.9-127.924 127.9C57.276 255.8 0 198.54 0 127.9 0 57.264 57.275 0 127.926 0z" fill="#24373E"/><path d="M127.924 46.964c44.708 0 80.95 36.24 80.95 80.936 0 44.702-36.242 80.937-80.95 80.937-44.705 0-80.948-36.235-80.948-80.937 0-44.696 36.243-80.936 80.948-80.936z" fill="#E5D4C4"/><path d="M127.926 79.743c26.603 0 48.172 21.56 48.172 48.16 0 26.597-21.57 48.16-48.172 48.16-26.6 0-48.168-21.562-48.168-48.16 0-26.6 21.567-48.16 48.168-48.16z" fill="#8FB1BE"/><path d="M132.05 0c115.275 9.038 123.8 118.868 123.8 118.868s-80.083-44.212-130.265-43.32C75.602 72.568 1.26 109.34 1.26 109.34S16.147 1.48 132.05 0" opacity=".25" fill="url(#a)"/></svg>
